storage/app/icons/phosphoricons/duotone/google-photos-logo-duotone.svg

<svg xmlns="http://www.w3.org/2000/svg" viewBox="0 0 256 256" fill="currentColor"><path d="M192,88a63.69,63.69,0,0,1-14,40H128V24A64,64,0,0,1,192,88ZM64,168a64,64,0,0,0,64,64V128H78A63.69,63.69,0,0,0,64,168Z" opacity="0.2"/><path d="M232,120H192.49A72,72,0,0,0,128,16a8,8,0,0,0-8,8V63.51A72,72,0,0,0,16,128a8,8,0,0,0,8,8H63.51A72,72,0,0,0,128,240a8,8,0,0,0,8-8V192.49A72,72,0,0,0,240,128,8,8,0,0,0,232,120ZM120,223.43A56.09,56.09,0,0,1,72,168a55.31,55.31,0,0,1,10-32h38ZM120,120H32.57A56.09,56.09,0,0,1,88,72a55.31,55.31,0,0,1,32,10Zm16-87.43A56.09,56.09,0,0,1,184,88,55.31,55.31,0,0,1,174,120H136ZM168,184A55.31,55.31,0,0,1,136,174V136h87.43A56.09,56.09,0,0,1,168,184Z"/></svg>

<svg xmlns="http://www.w3.org/2000/svg" fill="currentColor" viewBox="0 0 256 256"><path d="M192 88a63.7 63.7 0 0 1-14 40h-50V24a64 64 0 0 1 64 64M64 168a64 64 0 0 0 64 64V128H78a63.7 63.7 0 0 0-14 40" opacity=".2"/><path d="M232 120h-39.51A72 72 0 0 0 128 16a8 8 0 0 0-8 8v39.51A72 72 0 0 0 16 128a8 8 0 0 0 8 8h39.51A72 72 0 0 0 128 240a8 8 0 0 0 8-8v-39.51A72 72 0 0 0 240 128a8 8 0 0 0-8-8M120 223.43A56.09 56.09 0 0 1 72 168a55.3 55.3 0 0 1 10-32h38ZM120 120H32.57A56.09 56.09 0 0 1 88 72a55.3 55.3 0 0 1 32 10Zm16-87.43A56.09 56.09 0 0 1 184 88a55.3 55.3 0 0 1-10 32h-38ZM168 184a55.3 55.3 0 0 1-32-10v-38h87.43A56.09 56.09 0 0 1 168 184"/></svg>
